X: 1
T: On the Loose
M: C
K: A
L: 1/4
C/D/|"A"E>EE"A/G#"E|"F#m"E>DC"E"E|"D"DCB,A,|"E"B,3C/D/|
"A"E>EE"A/G#"E|"F#m"E/E(E/ E/)E/ "E"E/E/|"D"FFF/E/D|"E"E3F/G/|
"D"A>AGA|"E"B>(B B) A/B/|"A"[Ac][A/c/] ([A/c/] "E/G#"[A/c/])[B3/2G3/2]|
"F#m"[A2F2] [AF]"E"[GE]|"D"FF/(F/ F/)F3/2|"E"EECB,|"A"A,4|]
